X:151
T: In den schoenen Monat Mai, trueholda, duholda,
N: D0236
O: Europa, Mitteleuropa, Deutschland, Harz
N: rhythmische Korrektur in der zweiten Zeile;
N: Inzipit = Variante zum Lied; Variante zu D0234 ? (DVA-Signatur 236a)
R: Staende - Lied, Koehler
M: 2/4
L: 1/16
K: D
 |  |  |  |  |  |  | D2D2F2F2 | A2A2F4 |
c2A2A4 | d2F2A4 |
D2D2F2F2 | A2A2F4 |
c2A2Af3 | d3-d
f3e | dF3(3d2F2d2 | cE3Ge3 |
cE3(3c2E2c2 | dF3Af3 | d4z4

@@@ Tune index: 2673
